X:1
T:the Glen Road to Carrick
S:Paul O'Shaughnessy
Z:Juergen.Gier:post.rwth-aachen.de
M:C|
L:1/8
K:D
|: FD  (3DDD FDGD | FD (3DDD EFGE | FD (3DDD FDEF | G2BG EFGE :|
[| A3d (3BdB AF | DFAF EFGE | A3d (3BdB AF | GABG EFGE |
|  A3d (3BdB AF | DFAF EFGB | Adcd AdAF | EDCD EFDg |]
|: fd  (3ddd fdgd | fd (3ddd cdeg | fd (3ddd fdef |1 gfgb efga :|2 g2bg egfe ||
|: d2ad bdad | dfaf egfe |1 d2ad bdad | gabg egfe |2 dfa^g bgaf | gabg egfe ||
|: d2AG FD (3DDD | FDAD FA (3AAA | A3d (3BdB AF |1 EDCD EFGA :|2 EDCD EFDG |]
